X: 33259
T: Pumpherston, The
R: hornpipe
M: 4/4
K: Dminor
|:(3A,=B,^C|(3D^CD A,>F E>DC>G|(3FGA f>e d>cB>A|^G>AG>A E>F D2|(3EFG (3FED ^C>A (3A,=B,C|
(3D^CD A,>F E>DC>G|(3FGA f>e d>cB>A|^G>A (3EF=G (3FGA D>F|(3ED^C A>A, D2:|
|:D>e|(3fed (3fed e>a- a2|(3fed (3fed e>a- a2|(3fed (3edc (3dcB (3cBA|
[1 (3BAG (3^GAF E>D ^C2|(3DEF (3DEF ^G>AG>A|(3DEF (3DEF ^G>AG>A|(3DEF (3^CDE (3FGA (3GFE|(3FED A>A, D2- D3/2:|
[2 (3BAG (3^GAF E>D^C>A,|(3D^CD A,>F E>DC>G|(3FGA f>e d>cB>A|^G>A (3EF=G (3FGA D>F|(3ED^C A>A, D2||

